X: 17
T: L'aie bien frique / J'ayme une dame / Galoise
N: Derived from Ano3023-Laie_bien_frique__Jayme_une_dame__Galoise--Escorial_B.krn
C: Anonymous
%%abc-version 2.0
%%abcx-abcm2ps-target-version 5.9.1 (29 Sep 2008)
%%abc-creator hum2abc beta
%%abcx-conversion-date 2019/02/16 20:18:27
%%abc-edited-by Jesse Rodin
%%abc-edited-by Chris Gage 03-035-2015
%%abcx-initial-encoding-date 2015/03/14/
%%humdrum-veritas 3148057993
%%humdrum-veritas-data 1708975981
%%linebreak <none>
%%barnumbers 0
L: 1/4
M: 3/1
Q: 1/2=120
V: 1 clef=treble
V: 2 clef=treble-8
V: 3 clef=treble-8
K: F
[V:1] z2z2G2 [I:setbarnb 1]| 
[V:2] z6 | 
[V:3] z2z2c2 | 
[V:1] G6c6 | 
[V:2] z12 | 
[V:3] c4c2c4c2 | 
[V:1] =B6A4A2 | 
[V:2] z12 | 
[V:3] d6d4f2 | 
[V:1] G2d4c4=B2 | 
[V:2] z12 | 
[V:3] g4f2e2d4 | 
[V:1] c6z6 | 
[V:2] z12 | 
[V:3] c12 | 
[V:1] A6A6 | 
[V:2] d6f4e2 | 
[V:3] z6d6 | 
[V:1] G4F2E6- | 
[V:2] d4B2A4A2 | 
[V:3] G6c6 | 
[V:1] E6A4A2- | 
[V:2] c4d2e4e2 | 
[V:3] A12 | 
[V:1] A2=B4c4B2 | 
[V:2] f6e4f2 | 
[V:3] d6c4d2 | 
[V:1] G2A4G4^F2 | 
[V:2] d2e4d4c2 | 
[V:3] B2c4B2A4 | 
[V:1] G6z4G2 | 
[V:2] d6z6 | 
[V:3] G12 | 
[V:1] A2G4c4=B2 | 
[V:2] e6f4f2 | 
[V:3] c6d6 | 
[V:1] c6c6 | 
[V:2] g4e4c4 | 
[V:3] c6e6 | 
[V:1] =B4A2A4G2 | 
[V:2] d2f4e4d2 | 
[V:3] d4c4B4 | 
[V:1] A6z6 | 
[V:2] e12 | 
[V:3] A12 | 
[V:1] G4G4E4 | 
[V:2] z12 | 
[V:3] c2c2c2c4d2 | 
[V:1] C6G6 | 
[V:2] z12 | 
[V:3] e4f2e4d2 | 
[V:1] G6A4G2 | 
[V:2] z12 | 
[V:3] c4B2A2c4 | 
[V:1] E2G4F2G2E2 | 
[V:2] z12 | 
[V:3] c4B2A2G4 | 
[V:1] D6z2z4 | 
[V:2] f6e4e2 | 
[V:3] z6g6 | 
[V:1] d6c4=B2 | 
[V:2] d4B2A4A2 | 
[V:3] f6e6- | 
[V:1] G6c6 | 
[V:2] c4d2e4e2 | 
[V:3] e6c6 | 
[V:1] =B4A2c4d2 | 
[V:2] f4e4f2g2 | 
[V:3] d4c2A4G2- | 
[V:1] =B2A4G4^F2 | 
[V:2] d2e2c2d4c2 | 
[V:3] G2c4B2A4 | 
[V:1] G12 |]  
[V:2] d12 |]  
[V:3] G12 |]  



